file/bloomberg.svg

<svg clip-rule="evenodd" fill-rule="evenodd" stroke-linejoin="round" stroke-miterlimit="1.41421" viewBox="0 0 560 400" xmlns="http://www.w3.org/2000/svg"><g fill-rule="nonzero" transform="matrix(1.89464 0 0 1.89464 -182.103 173.189)"><path d="m115-9.6h18.9c3.6 0 6.3.9 8.3 2.4 2.2 1.8 3.4 4.4 3.4 7.6 0 3.7-1.5 6-4.5 7.4v.2c4 1.3 6.3 4.9 6.3 9.2 0 4.1-1.6 7.3-4.2 9.3-2.2 1.6-5 2.3-8.8 2.3h-19.4zm17 15c2 0 3.5-1.1 3.5-3.4 0-2.2-1.5-3.3-3.6-3.3h-6.5v6.6h6.6zm.9 14.9c2.3 0 4-1.4 4-3.9 0-2.7-1.8-3.9-4-3.9h-7.4v7.9h7.4z"/><path d="m149.1-9.6h9.9v38.5h-9.9z"/><path d="m161 15.2c0-8.7 5.6-14.5 14.3-14.5s14.2 5.9 14.2 14.5c0 8.7-5.5 14.5-14.2 14.5s-14.3-5.8-14.3-14.5zm18.6 0c0-4.8-1.5-7.8-4.5-7.8s-4.4 3-4.4 7.8 1.4 7.9 4.4 7.9c3-.1 4.5-3.1 4.5-7.9z"/><path d="m190.6 15.2c0-8.7 5.6-14.5 14.3-14.5s14.1 5.8 14.1 14.5-5.5 14.5-14.2 14.5c-8.6 0-14.2-5.8-14.2-14.5zm18.6 0c0-4.8-1.5-7.8-4.5-7.8s-4.4 3-4.4 7.8 1.4 7.9 4.4 7.9c3-.1 4.5-3.1 4.5-7.9z"/><path d="m221 1.4h9.2v4.1h.2c1.8-3.2 4.3-4.9 8.3-4.9 3.5 0 6.1 1.7 7.4 4.7h.2c2.2-3.6 5.1-4.7 8.5-4.7 6.4 0 9.1 4.7 9.1 11v17.2h-9.6v-15.5c0-2.8-.9-4.6-3.3-4.6s-3.6 2.2-3.6 5.2v14.9h-9.6v-15.5c0-2.8-.9-4.6-3.3-4.6s-3.6 2.2-3.6 5.2v14.9h-9.9z"/><path d="m276 25.2h-.1v3.6h-9.2v-38.4h9.6v13.8h.2c1.8-2.4 4.3-3.7 7.8-3.7 6.9 0 10.9 6.2 10.9 14.5 0 9.3-4.3 14.7-11.5 14.7-3 0-6.1-1.4-7.7-4.5zm9.3-10.3c0-4.4-1.6-7.3-4.5-7.3-3 0-4.8 2.9-4.8 7.3s1.9 7.3 4.8 7.3 4.5-2.8 4.5-7.3z"/><path d="m296.3 15.1c0-8.6 5.7-14.5 13.9-14.5 4.1 0 7.2 1.3 9.6 3.6 3.2 3.1 4.6 7.9 4.5 13.5h-18.4c.4 3.4 2 5.2 4.9 5.2 1.7 0 3.2-.8 3.8-2.6h9.3c-1.6 6.3-6.5 9.4-13.4 9.4-8.5-.1-14.2-5.9-14.2-14.6zm9.6-2.9h8.8c-.2-3.3-2-5-4.3-5-2.7-.1-4.2 1.8-4.5 5z"/><path d="m335.2 6.1h.2c2-3.8 4.6-5.3 7.9-5.3.8 0 1.3.1 1.6.3v8.4h-.2c-5.7-1-9 1.7-9 7.9v11.5h-9.7v-27.5h9.2z"/><path d="m345.9 28.9h9.3c.4 1.2 1.6 2.3 3.9 2.3 3.1 0 4.2-1.9 4.2-4.8v-2h-.2c-1.5 1.8-3.6 3.1-6.6 3.1-5.9 0-11.1-4.4-11.1-13 0-7.9 4.2-14 10.6-14 3.7 0 5.9 1.5 7.4 3.8h.2v-3h9.2v23.8c0 4.4-1.5 7.8-3.8 9.8-2.4 2.1-5.8 3-9.7 3-7.4.1-12.5-2.9-13.4-9zm17.8-14.8c0-3.4-1.6-6.2-4.4-6.2-2.7 0-4.4 2.4-4.4 6.2 0 3.7 1.7 6.3 4.4 6.3s4.4-2.7 4.4-6.3z"/></g></svg>

<?xml version="1.0" encoding="UTF-8" standalone="no"?>
<!DOCTYPE svg PUBLIC "-//W3C//DTD SVG 1.1//EN" "http://www.w3.org/Graphics/SVG/1.1/DTD/svg11.dtd">
<svg width="100%" height="100%" viewBox="0 0 560 400" version="1.1" xmlns="http://www.w3.org/2000/svg" xmlns:xlink="http://www.w3.org/1999/xlink" xml:space="preserve" xmlns:serif="http://www.serif.com/" style="fill-rule:evenodd;clip-rule:evenodd;stroke-linejoin:round;stroke-miterlimit:1.41421;">
    <g transform="matrix(1.89464,0,0,1.89464,-182.103,173.189)">
        <path d="M115,-9.6L133.9,-9.6C137.5,-9.6 140.2,-8.7 142.2,-7.2C144.4,-5.4 145.6,-2.8 145.6,0.4C145.6,4.1 144.1,6.4 141.1,7.8L141.1,8C145.1,9.3 147.4,12.9 147.4,17.2C147.4,21.3 145.8,24.5 143.2,26.5C141,28.1 138.2,28.8 134.4,28.8L115,28.8L115,-9.6ZM132,5.4C134,5.4 135.5,4.3 135.5,2C135.5,-0.2 134,-1.3 131.9,-1.3L125.4,-1.3L125.4,5.3L132,5.3L132,5.4ZM132.9,20.3C135.2,20.3 136.9,18.9 136.9,16.4C136.9,13.7 135.1,12.5 132.9,12.5L125.5,12.5L125.5,20.4L132.9,20.4L132.9,20.3Z" style="fill-rule:nonzero;"/>
        <rect x="149.1" y="-9.6" width="9.9" height="38.5" style="fill-rule:nonzero;"/>
        <path d="M161,15.2C161,6.5 166.6,0.7 175.3,0.7C184,0.7 189.5,6.6 189.5,15.2C189.5,23.9 184,29.7 175.3,29.7C166.6,29.7 161,23.9 161,15.2ZM179.6,15.2C179.6,10.4 178.1,7.4 175.1,7.4C172.1,7.4 170.7,10.4 170.7,15.2C170.7,20 172.1,23.1 175.1,23.1C178.1,23 179.6,20 179.6,15.2Z" style="fill-rule:nonzero;"/>
        <path d="M190.6,15.2C190.6,6.5 196.2,0.7 204.9,0.7C213.6,0.7 219,6.5 219,15.2C219,23.9 213.5,29.7 204.8,29.7C196.2,29.7 190.6,23.9 190.6,15.2ZM209.2,15.2C209.2,10.4 207.7,7.4 204.7,7.4C201.7,7.4 200.3,10.4 200.3,15.2C200.3,20 201.7,23.1 204.7,23.1C207.7,23 209.2,20 209.2,15.2Z" style="fill-rule:nonzero;"/>
        <path d="M221,1.4L230.2,1.4L230.2,5.5L230.4,5.5C232.2,2.3 234.7,0.6 238.7,0.6C242.2,0.6 244.8,2.3 246.1,5.3L246.3,5.3C248.5,1.7 251.4,0.6 254.8,0.6C261.2,0.6 263.9,5.3 263.9,11.6L263.9,28.8L254.3,28.8L254.3,13.3C254.3,10.5 253.4,8.7 251,8.7C248.6,8.7 247.4,10.9 247.4,13.9L247.4,28.8L237.8,28.8L237.8,13.3C237.8,10.5 236.9,8.7 234.5,8.7C232.1,8.7 230.9,10.9 230.9,13.9L230.9,28.8L221,28.8L221,1.4Z" style="fill-rule:nonzero;"/>
        <path d="M276,25.2L275.9,25.2L275.9,28.8L266.7,28.8L266.7,-9.6L276.3,-9.6L276.3,4.2L276.5,4.2C278.3,1.8 280.8,0.5 284.3,0.5C291.2,0.5 295.2,6.7 295.2,15C295.2,24.3 290.9,29.7 283.7,29.7C280.7,29.7 277.6,28.3 276,25.2ZM285.3,14.9C285.3,10.5 283.7,7.6 280.8,7.6C277.8,7.6 276,10.5 276,14.9C276,19.3 277.9,22.2 280.8,22.2C283.7,22.2 285.3,19.4 285.3,14.9Z" style="fill-rule:nonzero;"/>
        <path d="M296.3,15.1C296.3,6.5 302,0.6 310.2,0.6C314.3,0.6 317.4,1.9 319.8,4.2C323,7.3 324.4,12.1 324.3,17.7L305.9,17.7C306.3,21.1 307.9,22.9 310.8,22.9C312.5,22.9 314,22.1 314.6,20.3L323.9,20.3C322.3,26.6 317.4,29.7 310.5,29.7C302,29.6 296.3,23.8 296.3,15.1ZM305.9,12.2L314.7,12.2C314.5,8.9 312.7,7.2 310.4,7.2C307.7,7.1 306.2,9 305.9,12.2Z" style="fill-rule:nonzero;"/>
        <path d="M335.2,6.1L335.4,6.1C337.4,2.3 340,0.8 343.3,0.8C344.1,0.8 344.6,0.9 344.9,1.1L344.9,9.5L344.7,9.5C339,8.5 335.7,11.2 335.7,17.4L335.7,28.9L326,28.9L326,1.4L335.2,1.4L335.2,6.1Z" style="fill-rule:nonzero;"/>
        <path d="M345.9,28.9L355.2,28.9C355.6,30.1 356.8,31.2 359.1,31.2C362.2,31.2 363.3,29.3 363.3,26.4L363.3,24.4L363.1,24.4C361.6,26.2 359.5,27.5 356.5,27.5C350.6,27.5 345.4,23.1 345.4,14.5C345.4,6.6 349.6,0.5 356,0.5C359.7,0.5 361.9,2 363.4,4.3L363.6,4.3L363.6,1.3L372.8,1.3L372.8,25.1C372.8,29.5 371.3,32.9 369,34.9C366.6,37 363.2,37.9 359.3,37.9C351.9,38 346.8,35 345.9,28.9ZM363.7,14.1C363.7,10.7 362.1,7.9 359.3,7.9C356.6,7.9 354.9,10.3 354.9,14.1C354.9,17.8 356.6,20.4 359.3,20.4C362,20.4 363.7,17.7 363.7,14.1Z" style="fill-rule:nonzero;"/>
    </g>
</svg>
